X: 4425
T: Bonnie Ann
R: reel
M: 4/4
K: Gmixolydian
|:G2dG _BGdG|GA=BG dGcA|F3F dFcF|DF~F2 CFAF|
G2dG _BGdG|GA=BG dGcA|FGAB c2Bc|defd cAFA:|
|:g2dg Bgdg|g^fga gfdB|cBAG FGAB|(3cBA dc BGBd|g2dg Bgdg|
g^fga gfdB|1 ABcd efge|d2cA BGBd:|2 c2cB cdef|gedc BcBA||

